!!!COM:	Bach, Johann Sebastian
!!!CDT:	1685/02/21/-1750/07/28/
!!!OTL@@DE:	Wenn ich in Angst und Not
!!!SCT:	BWV 427
!!!PC#:	147
!!!AGN:	chorale
**kern	**kern	**kern	**kern
*ICvox	*ICvox	*ICvox	*ICvox
*Ibass	*Itenor	*Ialto	*Isoprn
*I"Bass	*I"Tenor	*I"Alto	*I"Soprano
*clefF4	*clefGv2	*clefG2	*clefG2
*k[b-e-a-]	*k[b-e-a-]	*k[b-e-a-]	*k[b-e-a-]
*E-:	*E-:	*E-:	*E-:
*M4/4	*M4/4	*M4/4	*M4/4
*met(c)	*met(c)	*met(c)	*met(c)
*MM100	*MM100	*MM100	*MM100
8E-L	8GL	4B-	4e-
8FJ	8A-J	.	.
=1	=1	=1	=1
4G	8B-L	4e-	4b-
.	8cJ	.	.
4G	4d-	4e-	4b-
8A-L	8cL	4e-	4cc
8GJ	8B-J	.	.
4F	4A-	4f	4ddnX
=2	=2	=2	=2
2E-;	2B-;	2g;	2ee-;
4r	4ry	4ry	4r
4BB-	[4B-	4f	4dd
=3	=3	=3	=3
4C	8B-L]	4cc	4ee-
.	8AJ	.	.
4G	[4B-	8b-L	4dd
.	.	8dJ	.
4E-	4B-]	4g	4cc
4F	4A	8fL	4cc
.	.	8e-J	.
=4	=4	=4	=4
2BB-;	2F;	2d;	2b-;
4r	4ry	4ry	4r
4GG	4B-	4e-	4b-
=5	=5	=5	=5
4AA-	8B-L	4e-	4cc
.	[8A-J	.	.
4BB-	8A-L]	4d	4b-
.	[8GJ	.	.
8CL	8GL]	8e-L	4a-
8DJ	[8FJ	8B-J	.
4E-	8FL]	4B-	4g
.	8E-J	.	.
=6	=6	=6	=6
2BB-;	2D;	2B-;	2f;
4r	4ry	4ry	4r
4BB	4G	[4d	4g
=7	=7	=7	=7
4C	4G	8dL]	4e-
.	.	[8cJ	.
4D	4F	8cL]	4f
.	.	8B-XJ	.
4E-	4E-	4B-	8gL
.	.	.	8a-J
4GG	4B-	4e-	4b-
=8	=8	=8	=8
4FF	4c	8e-L	2a-
.	.	16fL	.
.	.	16e-JJ	.
4BB-	4B-	4d	.
4EE-;	4B-;	4e-;	4g;
[4B-	4d	4f	4dd
=9	=9	=9	=9
8B-L]	4c	8gL	4ee-
8AJ	.	8fJ	.
4B-	4B-	4f	4dd
4E-	4B-	4g	4cc
4F	4A	8fL	4cc
.	.	8e-J	.
=10	=10	=10	=10
2BB-;	2F;	2d;	2b-;
4r	4ry	4ry	4r
4C	[4c	4g	4ee-
=11	=11	=11	=11
4G	8cL]	4g	4dd
.	[8B-J	.	.
4A-	8B-L]	4e-	4cc
.	[8A-J	.	.
4E-	8A-L]	4e-	4b-
.	8GJ	.	.
4C	4G	4e-	4cc
=12	=12	=12	=12
8DL	8dL	8fL	4b-
8EJ	8cJ	[8gJ	.
4F	4c	8gL]	4a-
.	.	[8fJ	.
4C	4c	8fL]	8gL
.	.	8e-XJ	8a-J
4GG	4B-	4e-	4b-
=13	=13	=13	=13
4C	8E-XL	2e-	4a-
.	8F	.	.
4BB-	8G	.	4g
.	8E-J	.	.
4AA-	4c	4e-	2f
4BB-	8B-L	4d	.
.	8A-J	.	.
=14	=14	=14	=14
2.EE-;	2.G;	2.B-;	2.e-;
==	==	==	==
*-	*-	*-	*-
!!!hum2abc: -Q ''
!!!title: @{PC#}. @{OTL@@DE}
!!!YOR1: 371 vierstimmige Choralges&auml;nge von Johann Sebastian Bach, 
!!!YOR2: 4th ed. by Alfred D&ouml;rffel (Leipzig: Breitkopf und H&auml;rtel, 
!!!YOR2: c.1875). 178 pp. Plate "V.A.10".  reprint: J.S. Bach, 371 Four-Part 
!!!YOR4: Chorales (New York: Associated Music Publishers, Inc., c.1940).
!!!SMS: B&H, 4th ed, Alfred D&ouml;rffel, c.1875, plate V.A.10
!!!EED:  Craig Stuart Sapp
!!!EEV:  2009/05/22
